contributed-vectors/hi_native.svg

<?xml version="1.0" encoding="UTF-8" standalone="no"?>
<!-- Created with Inkscape (http://www.inkscape.org/) -->

<svg
   xmlns:dc="http://purl.org/dc/elements/1.1/"
   xmlns:cc="http://creativecommons.org/ns#"
   xmlns:rdf="http://www.w3.org/1999/02/22-rdf-syntax-ns#"
   xmlns:svg="http://www.w3.org/2000/svg"
   xmlns="http://www.w3.org/2000/svg"
   xmlns:sodipodi="http://sodipodi.sourceforge.net/DTD/sodipodi-0.dtd"
   xmlns:inkscape="http://www.inkscape.org/namespaces/inkscape"
   id="svg2"
   version="1.1"
   inkscape:version="0.91 r13725"
   width="192"
   height="192"
   viewBox="0 0 192 192"
   sodipodi:docname="hi-native.svg">
  <metadata
     id="metadata8">
    <rdf:RDF>
      <cc:Work
         rdf:about="">
        <dc:format>image/svg+xml</dc:format>
        <dc:type
           rdf:resource="http://purl.org/dc/dcmitype/StillImage" />
        <dc:title></dc:title>
      </cc:Work>
    </rdf:RDF>
  </metadata>
  <defs
     id="defs6" />
  <sodipodi:namedview
     pagecolor="#ffffff"
     bordercolor="#666666"
     borderopacity="1"
     objecttolerance="10"
     gridtolerance="10"
     guidetolerance="10"
     inkscape:pageopacity="0"
     inkscape:pageshadow="2"
     inkscape:window-width="1920"
     inkscape:window-height="1017"
     id="namedview4"
     showgrid="true"
     inkscape:zoom="1"
     inkscape:cx="-130.25069"
     inkscape:cy="191.77619"
     inkscape:window-x="0"
     inkscape:window-y="30"
     inkscape:window-maximized="1"
     inkscape:current-layer="svg2">
    <inkscape:grid
       type="xygrid"
       id="grid4134"
       empspacing="2" />
  </sodipodi:namedview>
  <g
     id="g4203">
    <circle
       r="85"
       cy="94"
       cx="96"
       id="path3338"
       style="opacity:1;fill:#f9c28c;fill-opacity:1" />
    <path
       id="rect4138"
       d="M 70 62 C 66.676 62 64 64.676 64 68 L 64 120 C 64 123.324 66.676 126 70 126 C 73.324 126 76 123.324 76 120 L 76 100 L 96 100 L 96 120 C 96 123.324 98.676 126 102 126 C 105.324 126 108 123.324 108 120 L 108 68 C 108 64.676 105.324 62 102 62 C 98.676 62 96 64.676 96 68 L 96 88 L 76 88 L 76 68 C 76 64.676 73.324 62 70 62 z M 122 76 A 6 6 0 0 0 116 82 A 6 6 0 0 0 122 88 A 6 6 0 0 0 128 82 A 6 6 0 0 0 122 76 z M 122 94 C 118.676 94 116 96.676 116 100 L 116 120 C 116 123.324 118.676 126 122 126 C 125.324 126 128 123.324 128 120 L 128 100 C 128 96.676 125.324 94 122 94 z "
       style="opacity:1;fill:#ffffff;fill-opacity:1;stroke:none;stroke-width:2;stroke-miterlimit:4;stroke-dasharray:none;stroke-opacity:1" />
    <path
       id="path4171"
       d="M 150.58008 114.00391 C 144.62756 114.22476 141.98958 120.46383 140.82031 125.33203 C 138.01911 127.42388 135.2109 123.66767 135.71484 120.92383 C 134.26076 114.59447 125.95977 111.74309 121.16797 116.37891 C 115.67972 121.35957 111.19313 127.32946 105.60742 132.23438 C 97.001022 140.60956 88.754126 152.92211 93.333984 165.37695 C 95.032356 170.34251 98.372841 175.54162 102.82812 178.6875 A 85 85 0 0 0 125.85938 173.53516 C 125.86298 173.50911 125.86966 173.48523 125.87305 173.45898 C 116.91069 172.8945 104.96007 169.59319 104.13281 158.87891 C 104.53122 147.1929 115.69162 140.01486 122.71484 131.95898 C 125.02159 127.84661 125.9854 129.9544 127.69531 132.63867 C 133.75107 140.34101 147.10842 139.56466 151.60156 130.64258 C 152.96077 126.90243 155.8249 133.31856 157.9707 134.35352 C 160.66517 136.97004 163.30249 139.64741 165.81836 142.43555 A 85 85 0 0 0 172.30078 131.2207 C 171.98401 130.85145 171.61683 130.49547 171.17969 130.16016 C 163.94555 125.589 159.76924 115.02719 150.58008 114.00391 z "
       style="color:#000000;font-style:normal;font-variant:normal;font-weight:normal;font-stretch:normal;font-size:medium;line-height:normal;font-family:sans-serif;text-indent:0;text-align:start;text-decoration:none;text-decoration-line:none;text-decoration-style:solid;text-decoration-color:#000000;letter-spacing:normal;word-spacing:normal;text-transform:none;direction:ltr;block-progression:tb;writing-mode:lr-tb;baseline-shift:baseline;text-anchor:start;white-space:normal;clip-rule:nonzero;display:inline;overflow:visible;visibility:visible;opacity:1;isolation:auto;mix-blend-mode:normal;color-interpolation:sRGB;color-interpolation-filters:linearRGB;solid-color:#000000;solid-opacity:1;fill:#f9c28c;fill-opacity:1;fill-rule:nonzero;stroke:none;stroke-width:4;stroke-linecap:butt;stroke-linejoin:miter;stroke-miterlimit:4;stroke-dasharray:none;stroke-dashoffset:0;stroke-opacity:1;color-rendering:auto;image-rendering:auto;shape-rendering:auto;text-rendering:auto;enable-background:accumulate" />
    <path
       sodipodi:nodetypes="sccssccscscs"
       inkscape:connector-curvature="0"
       id="rect4153"
       d="m 127,120 c -1.04344,0 -1.95704,0.52819 -6.34335,5.50636 C 116.27034,130.48453 98.221495,145.19811 98,157 c 0,11.634 9.366,21 21,21 l 40,0 c 11.634,0 21,-9.366 21,-21 -1.51261,-13.3385 -17.12752,-25.80894 -22.08524,-31.14038 C 152.95704,120.52819 152.04344,120 151,120 c -1.662,0 -3,2 -3,3 0,0 -1.01531,9 -9.01562,9 C 130.98437,132 130,122.99712 130,122.99712 130,122 128.662,120 127,120 Z"
       style="opacity:1;fill:#f1e9e0;fill-opacity:1;stroke:none;stroke-width:2;stroke-miterlimit:4;stroke-dasharray:none;stroke-opacity:1" />
    <path
       id="path4178"
       d="M 122 144 A 10 10 0 0 0 112 154 A 10 10 0 0 0 122 164 A 10 10 0 0 0 132 154 A 10 10 0 0 0 122 144 z M 156 144 A 10 10 0 0 0 146 154 A 10 10 0 0 0 156 164 A 10 10 0 0 0 166 154 A 10 10 0 0 0 156 144 z "
       style="opacity:1;fill:#4a4a4a;fill-opacity:1;stroke:none;stroke-width:4;stroke-miterlimit:4;stroke-dasharray:none;stroke-opacity:1" />
    <path
       sodipodi:nodetypes="scccccs"
       inkscape:connector-curvature="0"
       id="path4182"
       d="m 139.01827,160 c -2.03988,0 -3.10657,1.68321 -4.07933,2.83286 C 133.96509,164.06558 131.5387,168 134.22582,168 l 4.79245,0 4.51885,0 c 2.96072,0 0.69822,-3.64661 -0.44396,-5.13767 C 141.93433,161.74076 141.05815,160 139.01827,160 Z"
       style="color:#000000;font-style:normal;font-variant:normal;font-weight:normal;font-stretch:normal;font-size:medium;line-height:normal;font-family:sans-serif;text-indent:0;text-align:start;text-decoration:none;text-decoration-line:none;text-decoration-style:solid;text-decoration-color:#000000;letter-spacing:normal;word-spacing:normal;text-transform:none;direction:ltr;block-progression:tb;writing-mode:lr-tb;baseline-shift:baseline;text-anchor:start;white-space:normal;clip-rule:nonzero;display:inline;overflow:visible;visibility:visible;opacity:1;isolation:auto;mix-blend-mode:normal;color-interpolation:sRGB;color-interpolation-filters:linearRGB;solid-color:#000000;solid-opacity:1;fill:#ffb0ac;fill-opacity:1;fill-rule:nonzero;stroke:none;stroke-width:5.14063692;stroke-linecap:round;stroke-linejoin:round;stroke-miterlimit:4;stroke-dasharray:none;stroke-dashoffset:0;stroke-opacity:1;color-rendering:auto;image-rendering:auto;shape-rendering:auto;text-rendering:auto;enable-background:accumulate" />
    <circle
       r="2"
       cy="152"
       cx="160"
       id="path4192"
       style="opacity:1;fill:#ffffff;fill-opacity:1;stroke:none;stroke-width:4;stroke-linecap:round;stroke-linejoin:round;stroke-miterlimit:4;stroke-dasharray:none;stroke-opacity:1" />
    <circle
       style="opacity:1;fill:#ffffff;fill-opacity:1;stroke:none;stroke-width:4;stroke-linecap:round;stroke-linejoin:round;stroke-miterlimit:4;stroke-dasharray:none;stroke-opacity:1"
       id="circle4194"
       cx="126"
       cy="152"
       r="2" />
  </g>
</svg>

<svg xmlns="http://www.w3.org/2000/svg" width="192" height="192"><circle cx="96" cy="94" r="85" style="opacity:1;fill:#f9c28c;fill-opacity:1"/><path d="M70 62c-3.324 0-6 2.676-6 6v52c0 3.324 2.676 6 6 6s6-2.676 6-6v-20h20v20c0 3.324 2.676 6 6 6s6-2.676 6-6V68c0-3.324-2.676-6-6-6s-6 2.676-6 6v20H76V68c0-3.324-2.676-6-6-6zm52 14a6 6 0 0 0-6 6 6 6 0 0 0 6 6 6 6 0 0 0 6-6 6 6 0 0 0-6-6zm0 18c-3.324 0-6 2.676-6 6v20c0 3.324 2.676 6 6 6s6-2.676 6-6v-20c0-3.324-2.676-6-6-6z" style="opacity:1;fill:#fff;fill-opacity:1;stroke:none;stroke-width:2;stroke-miterlimit:4;stroke-dasharray:none;stroke-opacity:1"/><path d="M150.58 114.004c-5.952.22-8.59 6.46-9.76 11.328-2.8 2.092-5.61-1.664-5.105-4.408-1.454-6.33-9.755-9.18-14.547-4.545-5.488 4.98-9.975 10.95-15.56 15.855-8.607 8.376-16.854 20.688-12.274 33.143 1.698 4.966 5.039 10.165 9.494 13.31a85 85 0 0 0 23.031-5.152l.014-.076c-8.962-.565-20.913-3.866-21.74-14.58.398-11.686 11.559-18.864 18.582-26.92 2.307-4.112 3.27-2.005 4.98.68 6.056 7.702 19.413 6.926 23.907-1.996 1.359-3.74 4.223 2.676 6.369 3.71 2.694 2.617 5.331 5.294 7.847 8.083a85 85 0 0 0 6.483-11.215 7.406 7.406 0 0 0-1.121-1.06c-7.234-4.572-11.41-15.134-20.6-16.157z" style="color:#000;font-style:normal;font-variant:normal;font-weight:400;font-stretch:normal;font-size:medium;line-height:normal;font-family:sans-serif;text-indent:0;text-align:start;text-decoration:none;text-decoration-line:none;text-decoration-style:solid;text-decoration-color:#000;letter-spacing:normal;word-spacing:normal;text-transform:none;direction:ltr;block-progression:tb;writing-mode:lr-tb;baseline-shift:baseline;text-anchor:start;white-space:normal;clip-rule:nonzero;display:inline;overflow:visible;visibility:visible;opacity:1;isolation:auto;mix-blend-mode:normal;color-interpolation:sRGB;color-interpolation-filters:linearRGB;solid-color:#000;solid-opacity:1;fill:#f9c28c;fill-opacity:1;fill-rule:nonzero;stroke:none;stroke-width:4;stroke-linecap:butt;stroke-linejoin:miter;stroke-miterlimit:4;stroke-dasharray:none;stroke-dashoffset:0;stroke-opacity:1;color-rendering:auto;image-rendering:auto;shape-rendering:auto;text-rendering:auto;enable-background:accumulate"/><path d="M127 120c-1.043 0-1.957.528-6.343 5.506C116.27 130.485 98.22 145.198 98 157c0 11.634 9.366 21 21 21h40c11.634 0 21-9.366 21-21-1.513-13.338-17.128-25.809-22.085-31.14-4.958-5.332-5.872-5.86-6.915-5.86-1.662 0-3 2-3 3 0 0-1.015 9-9.016 9-8 0-8.984-9.003-8.984-9.003 0-.997-1.338-2.997-3-2.997Z" style="opacity:1;fill:#f1e9e0;fill-opacity:1;stroke:none;stroke-width:2;stroke-miterlimit:4;stroke-dasharray:none;stroke-opacity:1"/><path d="M122 144a10 10 0 0 0-10 10 10 10 0 0 0 10 10 10 10 0 0 0 10-10 10 10 0 0 0-10-10zm34 0a10 10 0 0 0-10 10 10 10 0 0 0 10 10 10 10 0 0 0 10-10 10 10 0 0 0-10-10z" style="opacity:1;fill:#4a4a4a;fill-opacity:1;stroke:none;stroke-width:4;stroke-miterlimit:4;stroke-dasharray:none;stroke-opacity:1"/><path d="M139.018 160c-2.04 0-3.106 1.683-4.08 2.833-.973 1.233-3.4 5.167-.712 5.167h9.312c2.96 0 .697-3.647-.445-5.138-1.159-1.121-2.035-2.862-4.075-2.862Z" style="color:#000;font-style:normal;font-variant:normal;font-weight:400;font-stretch:normal;font-size:medium;line-height:normal;font-family:sans-serif;text-indent:0;text-align:start;text-decoration:none;text-decoration-line:none;text-decoration-style:solid;text-decoration-color:#000;letter-spacing:normal;word-spacing:normal;text-transform:none;direction:ltr;block-progression:tb;writing-mode:lr-tb;baseline-shift:baseline;text-anchor:start;white-space:normal;clip-rule:nonzero;display:inline;overflow:visible;visibility:visible;opacity:1;isolation:auto;mix-blend-mode:normal;color-interpolation:sRGB;color-interpolation-filters:linearRGB;solid-color:#000;solid-opacity:1;fill:#ffb0ac;fill-opacity:1;fill-rule:nonzero;stroke:none;stroke-width:5.14063692;stroke-linecap:round;stroke-linejoin:round;stroke-miterlimit:4;stroke-dasharray:none;stroke-dashoffset:0;stroke-opacity:1;color-rendering:auto;image-rendering:auto;shape-rendering:auto;text-rendering:auto;enable-background:accumulate"/><circle cx="160" cy="152" r="2" style="opacity:1;fill:#fff;fill-opacity:1;stroke:none;stroke-width:4;stroke-linecap:round;stroke-linejoin:round;stroke-miterlimit:4;stroke-dasharray:none;stroke-opacity:1"/><circle cx="126" cy="152" r="2" style="opacity:1;fill:#fff;fill-opacity:1;stroke:none;stroke-width:4;stroke-linecap:round;stroke-linejoin:round;stroke-miterlimit:4;stroke-dasharray:none;stroke-opacity:1"/></svg>
